X:1
T:German Dance
T:German Dance
T:Op. 33, No. 2 (D.145)
T:Franz Schubert
T:Public Domain (PianoXML typeset)
C:Franz Schubert
Z:Public Domain (PianoXML typeset)
%%score { ( 1 3 ) | 2 }
L:1/8
Q:1/4=70
M:3/4
K:D
V:1 treble nm="Piano" snm="Pno."
V:3 treble 
V:2 bass 
V:1
!p! [FA]/ ([FA]d) | !>![CGB]7/2 [CGB]/ (GB) | !>![DFA]7/2 [A,DF]/ (FA) | [A,DG]2 [A,DG]2 [A,EA]2 | %4
 [A,DF]7/2 [FA]/ (Ad) | !>![CGB]7/2 [CG]/ (GB) | !>![DFA]7/2 [A,DF]/ (FA) | %7
 [A,CF]2 [A,CF]2 [A,CEA]2 | [A,DF]7/2 ::!mf! [FA]/ (Af) | [Ae]7/2 c/ (ce) | !>![Fd]7/2 [DF]/ (FB) | %12
!p! [CEA]2 [B,DA]2 [CEA]2 | [DFA]7/2!mf! [FA]/ (Af) | [Ae]7/2 c/ (ce) | !>![Fd]7/2 [DF]/ (FB) | %16
 [CEA]2 [B,DA]2 [A,CA]2 | [A,D]7/2 :| %18
V:2
 z/ [D,A,]2 | [E,A,]4 [A,,A,]2 | [D,A,]4 A,,2 | B,,2 B,,2 B,,2 | D,4 [D,A,]2 | [E,A,]4 [A,,A,]2 | %6
 [D,A,]4 D,2 | C,2 C,2 [A,,E,G,]2 | [D,F,]7/2 :: [D,A,]/ [D,A,]2 | [C,A,]7/2 [A,,A,]/ [A,,A,]2 | %11
 [D,A,]7/2 [D,A,]/ [D,A,]2 | [A,,A,]2 [A,,A,]2 [A,,A,]2 | [D,A,]7/2 [D,A,]/ [D,A,]2 | %14
 [C,A,]7/2 [A,,A,]/ [A,,A,]2 | [D,A,]7/2 [D,A,]/ [D,A,]2 | [A,,A,]2 [A,,A,]2 [A,,G,]2 | %17
 [D,F,]7/2 :| %18
V:3
 x5/2 | x4 C2 | x4 [A,D]2 | x6 | x4 F2 | x4 C2 | x4 [A,D]2 | x6 | x7/2 :: x/ F2 | !>!G7/2 G/ G2 | %11
 x4 D2 | x6 | x4 F2 | !>!G7/2 G/ G2 | x4 D2 | x6 | x7/2 :| %18

